/*This wall is south of the player, therefore facing North XPM */
static char *custom123[] = {
/* columns, rows, no of colors, chars-per-pixel */
"64 64 21 1 ",
"N c #FFA500",
"  c black",
". c #202020",
"X c #2C2C2C",
"o c gray22",
"O c #000040",
"+ c #00004C",
"@ c #000058",
"# c #000064",
"$ c #000070",
"% c #00007C",
"& c gray33",
"* c #000088",
"= c #000098",
"- c #0000A4",
"; c #0000B0",
": c #0000BC",
"> c #0000C8",
", c #0000D4",
"< c #0000E0",
"1 c #4040FC",
/* pixel art */
"o$%%%%%%%%%%%%%%%%%%%$oo****************************oo$%%%%%%%$X",
".---------------------..::::::::::::::::::::::::::::..;;;;;;;;;.",
" ---*-%--=%==%==%-%$$@ .:-:;%-:=$$=*--*$*-:-*=-::-=$ .;:-=-;;=% ",
" -=%*===%%-=-#==%$%%$# .::-===$=@$@@%--#$$#$$@$**$#$ .;;--%=--@ ",
" -*-$>>=%%%=**%#@%$@@# .                             .;-;::;-%% ",
" -*%->>#%%%-===*$$%@@O .-------------------...........;:-;-%%#@ ",
" -==;;---=---==$$#@#$# .-::;:::::==;==;::-- .----==#..;==-%**## ",
" --=-;;-=%#--=**%##@OO .-;:<>;---===;;---=- .-==*=%# .;==-$***# ",
" -=%=--*=%=$$***$%%#@O .-;>N;;==-N==-%-%=-% .-===%%# .;:-=--**O ",
" -***-%%%--$@##$#%%%@O .-;;NN==;-N--=*#%%%# .--=%%@@ .:%%=--=@O ",
" =%*-**$=--$$#@###%%@O .-;;N;N=;:N--##*%%#@ .--=%-%@ .:%:-%==@O ",
" =*=%%-*#%@%#@#%O@OO#O .-:-N;;N;:N;-##$-##O .-%*=%@@ .::%%##%%O ",
" =%=%#**%#%#%#O$$OOO#O .-;-N=:=N-N;-==%%@@# .-***$$# .:%$#%#%%O ",
" ==%%%$#@@#%#$#OO$O#@O .-;<N**==NN%%*=*%##O .--**$$# .:%%$@@@@O ",
" =%=##$#%#OOOOOOOOOOOO .-:>N***--N**%*$%#@O .-%=-@@@ .          ",
"                       .-:--=**---**=##%#@O .---=-@# ...........",
"-:;-;-----;---- ;;;--== -;=-*=----%==%%@@OO .=-=-=$# .---- :::::",
":;-=-:;-*--%-=% ;;=::%: ----:-=---*#$%OO#@O .==%$%$@ .-;*% ::-;:",
":;==*--*%==%%== ;::;=%% -;=-:-*%**#%%$OO#OO .==@@@#O .-;;% :-;;;",
";-=;;==%%%=%%%% ;:;;==# -;---*-%%#$$@@@##@O .=%@#@@O .-*%@ :::;;",
"-*=;:;%%==%=@%% ;:=%==# ---====%#@##@##@OOO .=%#@@OO .-@#@ ::;;;",
"--*=;,%=%%##$%% ;=:%%%#                     .             .::--=",
";*%*=-=%%=#$%@@ ;==#%%@ .........................;;;;;;;;..:--==",
";-*=%=%==%$%#%@ ;:=*#@# .;;;;;;;;;;;;;;;;;;;;=-..;>;>---= .:;===",
";;=*;====%%$@@@ -:%**#@ .;:;-:::;:-;-:;%-:::%-@ .;>;>>-=* .::===",
";-*%*;;#%=**$@# -%#$$@# .;:-;><<:,<-:--::----%@ .;>>>>-*% .:;:--",
"-=%*-;;-=%**$@# =%@@@@# .;;-:,,<:<,,;%-%%-%%-@@ .;;->-*-# .:::--",
";=;==-;-#%$$$@@         .;::;;>>--,,--%%%$-%%@@ .;>----*# .:::;;",
"-**--=--#$@#@OO .........;;:;;;---:---%**%%@@@# .;>>--*%$ .:--:;",
"-=*---=%$#@##@@ .;;;;--..;--:;**-:;%--%***$$$@@ .;>>==--@ .:--;;",
"=*=*--%##@@@#O# .;;*-=* .;:;:;**---%---$**@$$$O .;;>===-@ .::==%",
"=**%**%##$%%#OO .;--=*= .;::-;;;=-%%%--$@#@#$$O .;;-*;--# .:**==",
"=*-=$%%$#$%%#@O .;-=*$# .;:-%-;;--%$%#$$$@OO@OO .;;>*;;=# .:**%%",
"=-=**%##@++$#@O .;;*;*@ .;--:%--=%$%%##$$#OO##O .;->-*==@ .::%%%",
"%==*%%%%@++@@#O .;;;$$# .;%:%--%%$#%%%##@@###+O .;>--=@$# .:--==",
"%**%$%%%@@#@@@@ .;;;-@@ .;-:%--$##@%%%#@@@@+++O .;>-=%=$@ .:--=*",
"%*#$%#%%@#@O@#@ .;==@*# .;-%--%@@@@####@OOOOOOO .;>-%==%# .:=--%",
"%=%#%#$@#OO@OOO .;==;@# .                       .-;-%#%%# .:=**%",
"%*=*$%$@@@O#O@O .;;*;*@ .........................-;;-%@#O .::**%",
"%=*%#$%$OOOOOOO .;;**@# .----------------------..-;-:-%#O .:==%*",
"                .;;%%@@ .-::::::;-------=*%:=-% .->--:*@O .     ",
".....@@$$***%$#..-;%%%@ .;:>>:--;;>:==--=%*%*=% .----**@O .*=** ",
".=-;:::::::::::..--*%%# .;:>>>;;;;::%%%%---==%# .->-%$@@O .==%% ",
".-:::::;-;:---: .--=@## .;::::,,;;;%%%%%%=%%$=# .-;*$#@$O .=%$$ ",
".-:;;,,;:::=-:: .-=*@@@ .;::;:,,,%-=%%$$$*%%%%# .--$#$@@O .=$%@ ",
".:::;,,:==-::=; .       .-;:;::,,:--=%$$##@%%%# .*%%@@@#O .*%$@ ",
".:-;-;;;===:-** .........--;>==:-:----%%##%#@++ .         .*$@# ",
".::;=*;;-==-::- .::;--=..-->>===;---%%=*$##@@OO ............... ",
".::=-:;*-;;;%-- .:%:*=* .-:::;==:::-%%%%###@@OO .;;;;:::::::::: ",
".::::-*:*;%%-*- .:-;;=% .-;--;;;::::-%*$@###$@+ .;;--;;;;-*:--% ",
".:-:=--:;=%+%-- .::%-%$ .-:---=-::::---@@@@#$$# .;-;,,;;;=---=% ",
".:;==:<:-*-%%-- .:;--%- .-::--:**:::---$@@#@+++ .;::,>>;;**-=%# ",
".:-:-<1<==-=*%* .:;-%-$ .--:==%%%*---%%%##@@@OO .;=:=>>;;--%%%@ ",
".:;:;:<:-%--++# .:-;;%# .--:-**%%%*%*@@==$$@+OO .;:;===--%%%%@# ",
".:-:;;;***%$++# .::;=*# .-=::=:%%*%%*%@==*$$#@# .;;-===-%$#%@@# ",
".-:;;-%%=-==%## .:;-**% .-:=-:-*%$$**@@%==%$@@O .;;=-==-%$#$%@@ ",
".:-:;**;%--=$%@ .:-:%%% .-:---=*--$$@$@@%%%#@@O .;;:;*;;=%#==@O ",
".:-:-=*%#*--=$# .::-### .---==%*---$#$$@+++#OOO .::;*-;;;=%==%O ",
".;-***-#+#*==$$ .:;-%$@ .-;-==:-%--@@$$#@OO@OOO .:;-*--;;=%%%%O ",
".;-$#*#-%%=@#@@ .;-###@ .-;:%::-@###@@+++OO+@OO .:;-:--%*$$%%@O ",
".--**#*@#@#$#$# .;-*$## .--;:-%=@###@@OO$$#O+O@ .:::=-%%$%%$#O# ",
".-=%%%%%$$$$%%%..-*%%%%..--=-=%%%%%%$#@@%%%%@@$..:--%=-%%%%%$$% ",
"o***%%%%%%%%%%%oo**%%%%oo->*****%%%%%%%%%%%%%%%oo:**%%%%%%%%%%%.",
"&&&&&&&&&&&&&&&&&&&&&&&&&&&&&&&&&&&&&&&&&&&&&&&&&&&&&&&&&&&&&&&o"
};
